X: 23917
T: Loch Of Lumgair
R: jig
M: 6/8
K: Dmajor
|:A/G|F>Ad f>ed|g3 B2 G|F>Ad d>ef|f3 e2 A|
F>Ad f>ed|g2 B e>dB|c>ea g>fe|d3 d3/2:|
|:f/g|a>fd d>AF|G>Bd g2 e|f>af d>cd|
[1 e>cA A>fg|a>fd d>AF|G>Bd g2 e|f>af g>ec|d3 d3/2:|
[2 e>cA A>GE|F>Ad f>ed|g2 B e>dB|c>ea g>fe|d3 d3/2||

